dist/assets/images/icons/compare.svg

<svg width="28" height="28" viewBox="0 0 28 28" fill="none" xmlns="http://www.w3.org/2000/svg">
<g opacity="0.5">
<path d="M19.8327 10.5007L19.8327 24.5007C19.8327 25.1449 20.3551 25.6673 20.9993 25.6673C21.6436 25.6673 22.166 25.1449 22.166 24.5007L22.166 10.5007C22.166 9.85636 21.6436 9.33398 20.9993 9.33398C20.3551 9.33398 19.8327 9.85636 19.8327 10.5007ZM15.166 24.5007L15.166 3.50065C15.166 2.85636 14.6436 2.33398 13.9993 2.33398C13.3551 2.33398 12.8327 2.85636 12.8327 3.50065L12.8327 24.5007C12.8327 25.1449 13.3551 25.6673 13.9993 25.6673C14.6436 25.6673 15.166 25.1449 15.166 24.5007ZM8.16601 24.5007L8.16602 16.334C8.16602 15.6897 7.64364 15.1673 6.99935 15.1673C6.35506 15.1673 5.83268 15.6897 5.83268 16.334L5.83268 24.5007C5.83268 25.1449 6.35506 25.6673 6.99935 25.6673C7.64364 25.6673 8.16601 25.1449 8.16601 24.5007Z" fill="white"/>
</g>
</svg>

<svg width="28" height="28" fill="none" xmlns="http://www.w3.org/2000/svg"><path d="M19.833 10.5v14a1.167 1.167 0 002.333 0v-14a1.167 1.167 0 00-2.333 0zm-4.667 14v-21a1.167 1.167 0 00-2.333 0v21a1.167 1.167 0 002.333 0zm-7 0v-8.166a1.167 1.167 0 00-2.333 0v8.167a1.167 1.167 0 002.333 0z" fill="#fff" opacity=".5"/></svg>
